X: 1
T: Pendle Witches, The
M: 9/8
L: 1/8
R: slip jig
K: Dmaj
|: D | F A2 B2 A F2 D | F A2 d2 B e2 A | F A2 B2 A F2 A | B d2 edc d2 :|
|: b | afd a2 d e2 A | ee/f/g Bed c2 A | dBG B/c/dB e2 A | B g2 edc d2 :|
